icons/1_Primary/Basecamp.svg

<svg xmlns="http://www.w3.org/2000/svg" viewBox="0 0 1024 1024">
   <circle cx="512" cy="512" r="512" style="fill:#ffe000"/>
   <path d="M767.7 621c-8.3-129.1-81.9-331.9-241.6-331.9-122.2 0-212.4 80.5-268 238.8-5.6 11.1 1.4 25 13.9 29.2 12.5 5.6 26.4-1.4 30.5-13.9 47.3-133.9 119.8-203 215.9-206.6 2 .6 4.1 1.1 6.3 1.1 118 0 183.3 161.1 194.4 280.5-40.3 59.7-138.9 69.4-194.4 69.4-63.9 1.4-126.4-23.6-172.2-69.4 18.1-45.8 44.4-88.9 56.9-90.3 5.6 0 19.4 15.3 26.4 22.2 15.3 16.7 30.5 33.3 52.8 33.3 11.1 0 40.3 0 95.8-120.8 5.6-12.5 1.4-26.4-11.1-31.9-12.5-5.6-26.4-1.4-31.9 11.1-18 40.3-41.7 79.1-54.2 91.6-5.6-4.2-12.5-11.1-16.7-16.7-15.3-16.7-34.7-37.5-61.1-37.5-51.4 1.4-91.6 94.4-106.9 134.7-2.8 8.3-1.4 18.1 5.6 23.6 54.2 61.1 131.9 95.8 212.4 95.8 1.4 0 4.2 0 5.6 1.4 116.6 0 201.3-36.1 238.8-100l.3-1.2c2-3.7 3-8.1 2.5-12.5z" style="fill:#fff"/>
</svg>

<svg width="1024" height="1024" viewBox="0 0 1024 1024" fill="none" xmlns="http://www.w3.org/2000/svg">
<g clip-path="url(#clip0_2_1566)">
<path d="M512 1024C794.77 1024 1024 794.77 1024 512C1024 229.23 794.77 0 512 0C229.23 0 0 229.23 0 512C0 794.77 229.23 1024 512 1024Z" fill="#F9DE81"/>
<path d="M767.7 621C759.4 491.9 685.8 289.1 526.1 289.1C403.9 289.1 313.7 369.6 258.1 527.9C252.5 539 259.5 552.9 272 557.1C284.5 562.7 298.4 555.7 302.5 543.2C349.8 409.3 422.3 340.2 518.4 336.6C520.4 337.2 522.5 337.7 524.7 337.7C642.7 337.7 708 498.8 719.1 618.2C678.8 677.9 580.2 687.6 524.7 687.6C460.8 689 398.3 664 352.5 618.2C370.6 572.4 396.9 529.3 409.4 527.9C415 527.9 428.8 543.2 435.8 550.1C451.1 566.8 466.3 583.4 488.6 583.4C499.7 583.4 528.9 583.4 584.4 462.6C590 450.1 585.8 436.2 573.3 430.7C560.8 425.1 546.9 429.3 541.4 441.8C523.4 482.1 499.7 520.9 487.2 533.4C481.6 529.2 474.7 522.3 470.5 516.7C455.2 500 435.8 479.2 409.4 479.2C358 480.6 317.8 573.6 302.5 613.9C299.7 622.2 301.1 632 308.1 637.5C362.3 698.6 440 733.3 520.5 733.3C521.9 733.3 524.7 733.3 526.1 734.7C642.7 734.7 727.4 698.6 764.9 634.7L765.2 633.5C767.2 629.8 768.2 625.4 767.7 621Z" fill="white"/>
</g>
<defs>
<clipPath id="clip0_2_1566">
<rect width="1024" height="1024" fill="white"/>
</clipPath>
</defs>
</svg>
